Obsidian/actions/16s/kdenlive-spacer-tool.svg

<svg height="16" viewBox="0 0 16 16" width="16" xmlns="http://www.w3.org/2000/svg"><path d="m12 1a3 3 0 0 0 -3 3 3 3 0 0 0 3 3 3 3 0 0 0 3-3 3 3 0 0 0 -3-3zm-4 .015625c-3.866 0-7 3.134-7 7s3.134 7 7 7c1.9268792-.002144 3.67509-.789458 4.943359-2.052734l2.052735 2.052734v-6h-6.0000002l2.5195312 2.515625c-.9001.90935-2.134025 1.484375-3.515625 1.484375-2.7614 0-5-2.2386-5-5s2.2386-5 5-5z" fill="#bebebe"/></svg>

<svg xmlns="http://www.w3.org/2000/svg" width="16" height="16" viewBox="0 0 16 16">
 <defs>
  <style id="current-color-scheme" type="text/css">
   .ColorScheme-Text { color:#bebebe; } .ColorScheme-Highlight { color:#4285f4; }
  </style>
 </defs>
 <path style="fill:currentColor" class="ColorScheme-Text" d="M 12 1 A 3 3 0 0 0 9 4 A 3 3 0 0 0 12 7 A 3 3 0 0 0 15 4 A 3 3 0 0 0 12 1 z M 8 1.015625 C 4.134 1.015625 1 4.149625 1 8.015625 C 1 11.881625 4.134 15.015625 8 15.015625 C 9.9268792 15.013481 11.67509 14.226167 12.943359 12.962891 L 14.996094 15.015625 L 14.996094 9.015625 L 8.9960938 9.015625 L 11.515625 11.53125 C 10.615525 12.4406 9.3816 13.015625 8 13.015625 C 5.2386 13.015625 3 10.777025 3 8.015625 C 3 5.254225 5.2386 3.015625 8 3.015625 L 8 1.015625 z"/>
</svg>
